svgs/duotone/comment-image.svg

<svg xmlns="http://www.w3.org/2000/svg" viewBox="0 0 512 512"><!--! Font Awesome Pro 6.3.0 by @fontawesome - https://fontawesome.com License - https://fontawesome.com/license (Commercial License) Copyright 2023 Fonticons, Inc. --><defs><style>.fa-secondary{opacity:.4}</style></defs><path class="fa-primary" d="M414.3 311.2c-2.719 5.398-8.246 8.803-14.29 8.803h-288c-6.277 0-11.98-3.672-14.57-9.389S95.82 298.2 99.96 293.5l56-64c3.039-3.473 7.428-5.465 12.04-5.465s9.004 1.992 12.04 5.465l22.71 25.95l77.73-104.9c3.018-4.074 7.787-6.477 12.86-6.477c5.068 0 9.838 2.402 12.86 6.477l106.7 144C416.5 299.3 417 305.8 414.3 311.2z"/><path class="fa-secondary" d="M256 32C114.6 32 .0273 125.1 .0273 240c0 49.63 21.35 94.98 56.97 130.7c-12.5 50.38-54.27 95.27-54.77 95.77c-2.25 2.25-2.875 5.734-1.5 8.734C1.979 478.2 4.75 480 8 480c66.25 0 115.1-31.76 140.6-51.39C181.2 440.9 217.6 448 256 448C397.4 448 512 354.9 512 240S397.4 32 256 32zM160 128c17.67 0 32 14.33 32 32S177.7 192 160 192S128 177.7 128 160S142.3 128 160 128zM414.3 311.2c-2.719 5.398-8.246 8.803-14.29 8.803h-288c-6.277 0-11.98-3.672-14.57-9.389S95.82 298.2 99.96 293.5l56-64c3.039-3.473 7.428-5.465 12.04-5.465s9.004 1.992 12.04 5.465l22.71 25.95l77.73-104.9c3.018-4.074 7.787-6.477 12.86-6.477c5.068 0 9.838 2.402 12.86 6.477l106.7 144C416.5 299.3 417 305.8 414.3 311.2z"/></svg>

<svg xmlns="http://www.w3.org/2000/svg" viewBox="0 0 512 512"><!-- Font Awesome Pro 6.0.0-alpha2 by @fontawesome - https://fontawesome.com License - https://fontawesome.com/license (Commercial License) --><defs><style>.fa-secondary{opacity:.4}</style></defs><path d="M256 32C114.625 32 0 125.125 0 240C0 289.625 21.375 335 57 370.75C44.5 421.125 2.75 466 2.25 466.5C0 468.75 -0.625 472.25 0.75 475.25C1.999 478.25 4.75 480 8 480C74.25 480 124 448.25 148.625 428.625C181.25 440.875 217.625 448 256 448C397.375 448 512 354.875 512 240S397.375 32 256 32ZM160 128C177.674 128 192 142.328 192 160S177.674 192 160 192S128 177.672 128 160S142.326 128 160 128ZM414.289 311.197C411.57 316.596 406.043 320 400 320H112C105.723 320 100.023 316.328 97.43 310.611S95.824 298.189 99.959 293.465L155.959 229.465C158.998 225.992 163.387 224 168 224S177.004 225.992 180.041 229.465L202.746 255.414L280.477 150.477C283.494 146.402 288.264 144 293.334 144C298.402 144 303.172 146.402 306.189 150.477L412.857 294.477C416.455 299.332 417.008 305.801 414.289 311.197Z" class="fa-secondary"/><path d="M414.289 311.198C411.571 316.596 406.043 320 400 320H112C105.723 320 100.024 316.328 97.43 310.612S95.825 298.19 99.959 293.465L155.959 229.465C158.998 225.993 163.387 224 168 224S177.004 225.993 180.041 229.465L202.746 255.414L280.477 150.477C283.494 146.403 288.264 144 293.334 144C298.403 144 303.172 146.403 306.19 150.477L412.858 294.477C416.455 299.332 417.008 305.801 414.289 311.198Z" class="fa-primary"/></svg>
